packages/sources/assets/src/assets/eps.svg

<svg width="58" height="40" viewBox="0 0 58 40" fill="none" xmlns="http://www.w3.org/2000/svg">
<rect x="0.5" y="0.5" width="57" height="39" rx="3.5" fill="white" stroke="#F3F3F3"/>
<path fill-rule="evenodd" clip-rule="evenodd" d="M23.2852 21.0283C23.2852 17.9875 25.7267 15.5127 28.7242 15.5127C31.7218 15.5127 34.149 17.9778 34.149 21.0187C34.149 24.0595 31.7161 26.5672 28.7186 26.5672H25.999V32.5018H23.2852V21.1447V21.0283ZM25.999 23.7745H28.7242C30.2326 23.7745 31.4598 22.5587 31.4598 21.0187C31.4598 19.4787 30.2326 18.2258 28.7242 18.2258C27.2158 18.2258 25.999 19.4787 25.999 21.0187V23.7745ZM42.2818 19.6436H38.7451C38.3518 19.6436 38.0317 19.3278 38.0317 18.9324C38.0317 18.5371 38.3518 18.1891 38.7451 18.1891H44.1295V15.5127H38.7451C36.8658 15.5127 35.3368 17.0565 35.3368 18.9454C35.3368 20.8344 36.8658 22.3781 38.7451 22.3781H42.2338C42.6272 22.3781 42.9472 22.6927 42.9472 23.088C42.9472 23.4834 42.6272 23.7745 42.2338 23.7745H34.7528C34.1177 24.9963 33.5001 26.0436 32.2464 26.5672H42.2818C44.1295 26.5404 45.6409 24.9648 45.6409 23.0926C45.6409 21.2204 44.1295 19.6704 42.2818 19.6436ZM30.4651 29.8492C30.3695 29.8492 30.2807 29.7943 30.2807 29.6774C30.2807 29.5088 30.4173 29.4298 30.5401 29.4298C30.6391 29.4298 30.7143 29.4882 30.7143 29.6017C30.7143 29.7633 30.5845 29.8492 30.4651 29.8492ZM31.2911 29.8492C31.1921 29.8492 31.0999 29.7943 31.0999 29.6739C31.0999 29.5088 31.2399 29.4298 31.3628 29.4298C31.4549 29.4298 31.5369 29.4917 31.5369 29.6051C31.5369 29.7633 31.3969 29.8492 31.2911 29.8492ZM31.7689 30.1164L31.5232 31.5184C31.4003 32.2271 30.9395 32.5516 30.3148 32.5516C29.7858 32.5516 29.3762 32.2042 29.4957 31.5196L29.7414 30.1164H30.1204L29.8745 31.5184C29.7994 31.9554 29.994 32.2042 30.3626 32.2042C30.7415 32.2042 31.0658 31.9771 31.1443 31.5196L31.39 30.1164H31.7689ZM32.514 31.0852L32.6846 30.1163H32.333L31.9132 32.5018H32.2443L32.3092 32.2489C32.4252 32.4621 32.6163 32.5465 32.8416 32.5465C33.4218 32.5465 33.8758 32.1514 33.8758 31.4945C33.8758 31.0302 33.5823 30.7803 33.159 30.7803C32.9542 30.7803 32.6607 30.8858 32.514 31.0852ZM32.8485 32.2156C32.5856 32.2156 32.4048 32.0333 32.4184 31.7513C32.4388 31.3765 32.7665 31.1116 33.0941 31.1116C33.3502 31.1116 33.5345 31.2801 33.5208 31.5656C33.5003 31.9576 33.1795 32.2156 32.8485 32.2156ZM34.566 31.8036C34.5524 32.0363 34.7333 32.2264 35.0405 32.2264C35.2112 32.2264 35.4364 32.1591 35.5592 32.0422L35.7504 32.2648C35.5422 32.4573 35.235 32.5531 34.9756 32.5531C34.491 32.5531 34.2076 32.2606 34.2076 31.8135C34.2076 31.2185 34.6718 30.7751 35.2657 30.7751C35.8085 30.7751 36.1157 31.1054 35.9314 31.8036H34.566ZM35.6446 31.5127C35.6719 31.2218 35.5013 31.1034 35.2179 31.1034C34.962 31.1034 34.7265 31.2218 34.624 31.5127H35.6446ZM36.8705 30.8145L36.8535 31.0388C37.0174 30.8219 37.2153 30.7777 37.3962 30.7777C37.56 30.7777 37.7067 30.8363 37.7853 30.9222L37.5737 31.2318C37.4986 31.1632 37.4235 31.1288 37.2938 31.1288C37.0514 31.1288 36.8126 31.2753 36.7579 31.5883L36.5976 32.5018H36.2459L36.5429 30.8145H36.8705ZM39.6562 32.1489L39.4788 30.8145H39.175L38.53 32.1489L38.3558 30.8145H37.9599L38.2568 32.5018H38.6665L38.96 31.9417L39.2297 31.3887L39.3969 32.5018H39.8099L40.6905 30.8145H40.298L39.6562 32.1489ZM41.6164 32.2264C41.3092 32.2264 41.1283 32.0363 41.1419 31.8036H42.5073C42.6916 31.1054 42.3844 30.7751 41.8416 30.7751C41.2477 30.7751 40.7836 31.2185 40.7836 31.8135C40.7836 32.2606 41.0669 32.5531 41.5516 32.5531C41.8109 32.5531 42.1182 32.4573 42.3263 32.2648L42.1351 32.0422C42.0123 32.1591 41.7871 32.2264 41.6164 32.2264ZM41.7938 31.1034C42.0772 31.1034 42.2478 31.2218 42.2205 31.5127H41.1999C41.3024 31.2218 41.5379 31.1034 41.7938 31.1034ZM43.1598 30.3549C43.1598 30.4752 43.2486 30.5373 43.3442 30.5373C43.4807 30.5373 43.607 30.4477 43.607 30.2794C43.607 30.1657 43.5216 30.1003 43.4295 30.1003C43.3032 30.1003 43.1598 30.183 43.1598 30.3549ZM43.4704 30.8145L43.1735 32.5018H42.8219L43.1189 30.8145H43.4704ZM45.0306 31.2319C44.9213 31.1081 44.7814 31.0737 44.6142 31.0737C44.382 31.0737 44.2182 31.1529 44.2182 31.3007C44.2182 31.4245 44.3512 31.4763 44.5493 31.4934C44.8565 31.5208 45.249 31.6241 45.1671 32.0609C45.1091 32.3773 44.795 32.563 44.3581 32.563C44.0851 32.563 43.8222 32.5011 43.6448 32.25L43.8734 31.999C43.9997 32.1743 44.2216 32.2466 44.4196 32.25C44.5868 32.25 44.7848 32.1881 44.8155 32.0299C44.8463 31.8786 44.7131 31.8202 44.4674 31.796C44.1806 31.7684 43.8667 31.662 43.8667 31.342C43.8667 30.9189 44.3205 30.7711 44.6619 30.7711C44.9213 30.7711 45.1125 30.8295 45.2696 30.9981L45.0306 31.2319ZM45.9799 31.7231L46.1403 30.8145H45.7888L45.6283 31.725C45.5396 32.2373 45.7854 32.5356 46.1984 32.5356C46.4338 32.5356 46.6284 32.4465 46.8264 32.2573L46.8025 32.5018H47.12L47.4168 30.8145H47.0652L46.9116 31.699C46.864 31.981 46.6284 32.2118 46.352 32.2118C46.0585 32.2118 45.9287 32.0121 45.9799 31.7231ZM48.9603 32.5018L49.1208 31.5987C49.1719 31.3063 49.0731 31.1126 48.7522 31.1126C48.4723 31.1126 48.2367 31.3394 48.189 31.618L48.0354 32.5018H47.6838L47.9808 30.8145H48.3016L48.2777 31.0611C48.4723 30.8788 48.6736 30.7889 48.892 30.7889C49.3016 30.7889 49.568 31.076 49.4758 31.5955L49.3154 32.5018H48.9603ZM50.152 32.7345C50.1281 32.9672 50.3056 33.0614 50.6027 33.0614C50.8621 33.0614 51.142 32.9154 51.2069 32.544L51.258 32.2543C51.1044 32.471 50.8245 32.5565 50.6164 32.5565C50.1862 32.5565 49.8859 32.2984 49.8859 31.8305C49.8859 31.1634 50.3773 30.7781 50.9336 30.7781C51.1693 30.7781 51.3809 30.8908 51.456 31.0834L51.514 30.8145H51.8553L51.5617 32.5519C51.4526 33.1952 50.9781 33.3948 50.5446 33.3948C50.0257 33.3948 49.7392 33.1418 49.8107 32.7345H50.152ZM50.251 31.7617C50.251 32.0505 50.4387 32.226 50.7086 32.226C51.4354 32.226 51.63 31.1014 50.9029 31.1014C50.5582 31.1014 50.251 31.3592 50.251 31.7617Z" fill="#71706F"/>
<path fill-rule="evenodd" clip-rule="evenodd" d="M14.6806 5.88367C17.2325 5.88367 19.3012 7.91701 19.3012 10.4253V11.6972C19.3012 11.8605 19.1584 12.0218 18.9923 12.0218H17.2923C17.1263 12.0218 16.9916 11.8605 16.9916 11.6972V10.4253C16.9916 9.17274 15.9563 8.15369 14.682 8.15369C13.4076 8.15369 12.3724 9.17274 12.3724 10.4253V11.6972C12.3724 11.8605 12.2267 12.0218 12.0607 12.0218H10.3607C10.1947 12.0218 10.0627 11.8605 10.0627 11.6972V10.3324C10.0627 10.3291 10.0627 10.3258 10.0626 10.3226C10.0624 10.3155 10.0622 10.3085 10.063 10.3013C10.13 7.8505 12.1711 5.88367 14.6806 5.88367ZM14.6937 26.5673C12.1277 26.5673 9.97039 24.7249 9.38663 22.3179C9.38663 22.3179 9.21797 21.5221 9.21797 20.998C9.21797 20.474 9.37763 19.67 9.37763 19.67C9.9656 17.2689 12.1202 15.481 14.682 15.481C17.6949 15.481 20.1673 17.9489 20.1673 20.9849V22.32H12.1624C12.6352 23.2509 13.5912 23.7746 14.6937 23.7746H21.8896L21.8995 15.9015C21.8995 14.7277 20.9465 13.7673 19.7816 13.7673H9.58243C8.41752 13.7673 7.4644 14.6986 7.4644 15.8724V26.1495C7.4644 27.3233 8.41752 28.3128 9.58243 28.3128H19.7816C20.827 28.3128 21.699 27.5564 21.8675 26.5673H14.6937ZM14.682 18.0935C13.5838 18.0935 12.6287 18.771 12.1541 19.6437H17.21C16.7354 18.771 15.7804 18.0935 14.682 18.0935Z" fill="#C8036F"/>
</svg>

<svg width="58" height="40" fill="none" xmlns="http://www.w3.org/2000/svg"><rect x=".5" y=".5" width="57" height="39" rx="3.5" fill="#fff" stroke="#F3F3F3"/><path fill-rule="evenodd" clip-rule="evenodd" d="M23.285 21.028c0-3.04 2.442-5.515 5.44-5.515 2.997 0 5.424 2.465 5.424 5.506 0 3.04-2.433 5.548-5.43 5.548h-2.72v5.935h-2.714V21.028ZM26 23.775h2.725a2.736 2.736 0 0 0 2.736-2.756c0-1.54-1.227-2.793-2.736-2.793-1.508 0-2.725 1.253-2.725 2.793v2.756Zm16.283-4.131h-3.537a.711.711 0 0 1-.713-.712c0-.395.32-.743.713-.743h5.385v-2.676h-5.385c-1.88 0-3.408 1.543-3.408 3.432 0 1.89 1.529 3.433 3.408 3.433h3.489a.71.71 0 0 1 .713.71c0 .395-.32.686-.713.686h-7.481c-.635 1.222-1.253 2.27-2.507 2.793h10.036c1.848-.027 3.359-1.602 3.359-3.474 0-1.873-1.511-3.423-3.36-3.45ZM30.465 29.849c-.096 0-.184-.055-.184-.172 0-.168.136-.247.26-.247.098 0 .173.058.173.172 0 .161-.13.247-.249.247Zm.826 0c-.099 0-.191-.055-.191-.175 0-.165.14-.244.263-.244.092 0 .174.062.174.175 0 .158-.14.244-.246.244Zm.478.267-.246 1.402c-.123.71-.584 1.034-1.208 1.034-.53 0-.939-.348-.82-1.032l.246-1.404h.38l-.246 1.402c-.076.437.119.686.488.686.378 0 .703-.227.781-.684l.246-1.404h.379Zm.745.97.17-.97h-.351l-.42 2.386h.331l.065-.253c.116.213.307.297.533.297.58 0 1.034-.395 1.034-1.052 0-.464-.294-.714-.717-.714-.205 0-.498.106-.645.305Zm.334 1.13c-.262 0-.443-.183-.43-.465a.687.687 0 0 1 .676-.64c.256 0 .44.17.427.455a.678.678 0 0 1-.672.65Zm1.718-.412c-.014.232.167.422.474.422.171 0 .396-.067.52-.184l.19.223a1.186 1.186 0 0 1-.774.288c-.485 0-.768-.292-.768-.74 0-.595.464-1.038 1.058-1.038.543 0 .85.33.665 1.029h-1.365Zm1.079-.291c.027-.291-.144-.41-.427-.41-.256 0-.492.119-.594.41h1.02Zm1.225-.699-.017.225a.63.63 0 0 1 .543-.261c.164 0 .31.058.39.144l-.212.31a.37.37 0 0 0-.28-.103.528.528 0 0 0-.536.46l-.16.913h-.352l.297-1.688h.328Zm2.786 1.335-.177-1.335h-.304l-.645 1.335-.174-1.335h-.396l.297 1.688h.41l.293-.56.27-.553.167 1.113h.413l.88-1.688h-.392l-.642 1.335Zm1.96.077c-.307 0-.488-.19-.474-.422h1.365c.185-.699-.123-1.029-.665-1.029-.594 0-1.058.444-1.058 1.039 0 .447.283.74.768.74.259 0 .566-.097.774-.29l-.19-.222c-.124.117-.349.184-.52.184Zm.178-1.123c.283 0 .454.119.427.41H41.2c.102-.291.338-.41.594-.41Zm1.366-.748c0 .12.089.182.184.182.137 0 .263-.09.263-.258a.173.173 0 0 0-.178-.179c-.126 0-.27.083-.27.255Zm.31.46-.297 1.687h-.351l.297-1.688h.351Zm1.56.417c-.109-.124-.249-.158-.416-.158-.232 0-.396.079-.396.227 0 .123.133.175.331.192.307.028.7.131.618.568-.058.316-.372.502-.809.502-.273 0-.536-.062-.713-.313l.228-.251c.127.175.349.248.547.251.167 0 .365-.062.395-.22.031-.151-.102-.21-.348-.234-.286-.028-.6-.134-.6-.454 0-.423.454-.57.795-.57.26 0 .45.058.608.226l-.24.234Zm.95.491.16-.909h-.351l-.16.911c-.09.512.156.81.57.81.235 0 .43-.088.627-.278l-.023.245h.317l.297-1.688h-.352l-.153.885c-.048.282-.284.513-.56.513-.293 0-.423-.2-.372-.489Zm2.98.779.16-.903c.052-.293-.047-.486-.368-.486-.28 0-.515.226-.563.505l-.154.884h-.351l.297-1.688h.32l-.023.247c.194-.182.396-.272.614-.272.41 0 .676.287.584.806l-.16.907h-.356Zm1.192.232c-.024.233.154.327.45.327a.59.59 0 0 0 .605-.517l.051-.29c-.154.217-.434.303-.642.303-.43 0-.73-.259-.73-.727 0-.667.491-1.052 1.048-1.052.235 0 .447.113.522.305l.058-.268h.341l-.293 1.737c-.11.643-.584.843-1.017.843-.52 0-.806-.253-.734-.66h.341Zm.099-.972c0 .288.188.464.458.464.726 0 .921-1.125.194-1.125a.642.642 0 0 0-.652.66Z" fill="#71706F"/><path fill-rule="evenodd" clip-rule="evenodd" d="M14.68 5.884c2.553 0 4.621 2.033 4.621 4.541v1.272c0 .164-.143.325-.309.325h-1.7c-.166 0-.3-.162-.3-.325v-1.272c0-1.252-1.036-2.271-2.31-2.271s-2.31 1.019-2.31 2.271v1.272c0 .164-.145.325-.311.325h-1.7c-.166 0-.298-.162-.298-.325v-1.395c.067-2.451 2.108-4.418 4.618-4.418Zm.014 20.683c-2.566 0-4.724-1.842-5.307-4.25 0 0-.169-.795-.169-1.319 0-.524.16-1.328.16-1.328.588-2.401 2.742-4.189 5.304-4.189 3.013 0 5.485 2.468 5.485 5.504v1.335h-8.005c.473.93 1.43 1.455 2.532 1.455h7.196l.01-7.873a2.132 2.132 0 0 0-2.118-2.135h-10.2a2.108 2.108 0 0 0-2.118 2.105V26.15c0 1.174.954 2.164 2.118 2.164h10.2a2.114 2.114 0 0 0 2.085-1.746h-7.173Zm-.012-8.474c-1.098 0-2.053.678-2.528 1.55h5.056c-.475-.872-1.43-1.55-2.528-1.55Z" fill="#C8036F"/></svg>
